X:1
T:Freylinghausen, 66.77.77
T:Freylinghausen, 66.77.77
T:Johann Anastasius Freylinghausen, 1704
T:Public Domain Courtesy of the Cyber Hymnal™
C:Johann Anastasius Freylinghausen, 1704
Z:Public Domain
Z:Courtesy of the Cyber Hymnal™
%%score ( 1 2 ) ( 3 4 )
L:1/8
Q:1/4=110
M:4/4
K:C
V:1 treble 
V:2 treble 
V:3 bass 
V:4 bass 
V:1
 [Ec]2 | [DG]2 [EA]2 [DG]2 [B,F]2 | [CE]6 [CG]2 | [CA]2 [CD]2 [CE]2 [B,D]2 | C8 | %5
 [CE]2 C2 [DG]2 [B,G]2 | [EA]2 [Dc]2 [DB]4 | [DA]2 [DB]2 [Ec]2 [Ge]2 | [Fd]2 B2 [Ec]4 | %9
 [Gd]2 [Gd]2 [Ge]2 [Gc]2 | [FB]2 [Ec]2 [Gd]4 | [Gc]2 [FA]2 [EG]2 [Af]2 | [Ge]2 d2 [Ec]2 |] %13
V:2
 x2 | x8 | x8 | x8 | C8 | x2 C2 x4 | x8 | x8 | x2 (DF) x4 | x8 | x8 | x8 | x2 (GF) x2 |] %13
V:3
 [C,G,]2 | [B,,G,]2 [A,,C]2 [B,,G,]2 [G,,G,]2 | [C,G,]6 [C,E,]2 | [F,,F,]2 [F,A,]2 G,2 [G,,F,]2 | %4
 [C,E,]8 | [C,G,]2 [E,G,]2 [B,,G,]2 [E,G,]2 | [C,G,]2 [D,^F,]2 [G,,G,]4 | %7
 [D,^F,]2 G,2 [E,G,]2 [C,C]2 | [F,A,]2 G,2 [C,G,]4 | [B,,D]2 [G,,B,]2 [C,C]2 [E,C]2 | %10
 [D,D]2 [C,G,]2 [G,,B,]4 | [E,C]2 [F,C]2 [C,C]2 [F,,D]2 | (EC) [G,,B,]2 [C,C]2 |] %13
V:4
 x2 | x8 | x8 | x4 G,2 x2 | x8 | x8 | x8 | x2 (G,=F,) x4 | x2 G,2 x4 | x8 | x8 | x8 | G,,2 x4 |] %13

